X: 63
T: Chicken Dance Song
C: Anon.
%%abc-version 2.0
%%abcx-abcm2ps-target-version 5.9.1 (29 Sep 2008)
%%abc-creator hum2abc beta
%%abcx-conversion-date 2020/08/10 20:56:09
%%abc-copyright Electronic Copyright 2000 David Huron
%%abc-edited-by David Huron
%%abcx-initial-encoding-date August 30, 2000
%%humdrum-veritas 2246174320
%%humdrum-veritas-data 3608476588
%%linebreak <none>
%%barnumbers 0
L: 1/16
M: 3/4
Q: 1/4=63
K: C clef=bass
z8z3 G, | 
G,> G, G,2 B,2 A, G, G,2 G, z/ A,/ | 
A,> A, A,2 A,2 G, F, F,2 (3F, D, G,[M:2/4] | 
G,> G, G,2 B,2 A, G, | 
G,2 G, D, G,2 G, z/ A,/[M:3/4] | 
A,> A, A,2 A,2 G, F, F,2 (3F, D, G,[M:2/4] | 
G,> G, G,2 B,2 A, G, | 
G,2 G, D, G,2 G, z[M:3/4] | 
G, G,2 G,2< B,2 A, G,2 G, z | 
B, B,2 G,2< A,2 G, E,2 E, D, | 
G, G,2 G,2< G,2 G, G, z B,2[M:2/4] | 
A,2> G,2 E,2 E, D,[M:3/4] | 
G, G,2 G,2< G,2 G, G, z A,2[M:2/4] | 
A,2> G,2 E,2 E, D,/ z/[M:3/4] | 
G, G,2 G,2< G,2 G, G,2 G, z | 
G, G,2 G,2< B,2 A, G,2 G, z | 
B, B,2 G,2< A,2 G, E,2 E, D,/ z/ | 
G, G,2 G,2< G,2 G, G, z B,2[M:2/4] | 
A,2> G,2 E,2 E, D,/ z/[M:3/4] | 
G, G,2 G,2< G,2 G, G,2 G, z |]  


